latex_in_markdown/.watch-latex-md-images/4f52e58fb1bd3486250940a04338a1e7.svg

<ns0:svg xmlns:ns0="http://www.w3.org/2000/svg" xmlns:ns1="http://www.w3.org/1999/xlink" height="11.7639pt" version="1.1" viewBox="23.686 62.9559 46.7859 11.7639" width="46.7859pt" watch_lated_md:baseline="-7.105427357601002e-15" xmlns:watch_lated_md="https://github.com/Quansight/pearu-sandbox/latex_in_markdown/">
<ns0:defs>
<ns0:path d="m2.92662 -1.91091c-0.60254 1.01571 -1.18787 1.36002 -2.01421 1.41167c-0.18937 0.0172154 -0.327093 0.0172154 -0.327093 0.327093c0 0.103293 0.0860772 0.172154 0.206585 0.172154c0.309878 0 1.08457 -0.0344309 1.39445 -0.0344309c0.499248 0 1.05014 0.0344309 1.53217 0.0344309c0.103293 0 0.309878 0 0.309878 -0.327093c0 -0.154939 -0.137724 -0.172154 -0.241016 -0.172154c-0.395955 -0.0344309 -0.723049 -0.172154 -0.723049 -0.585325c0 -0.241016 0.103293 -0.430386 0.327093 -0.809126l1.30837 -2.16915h4.38994c0.0172154 0.154939 0.0172154 0.292662 0.0344309 0.447601c0.0516463 0.447601 0.258232 2.23801 0.258232 2.5651c0 0.516463 -0.877987 0.550894 -1.15343 0.550894c-0.18937 0 -0.37874 0 -0.37874 0.309878c0 0.18937 0.154939 0.18937 0.258232 0.18937c0.292662 0 0.636971 -0.0344309 0.929634 -0.0344309h0.98128c1.05014 0 1.80762 0.0344309 1.82484 0.0344309c0.120508 0 0.309878 0 0.309878 -0.327093c0 -0.172154 -0.154939 -0.172154 -0.413171 -0.172154c-0.946849 0 -0.964065 -0.154939 -1.01571 -0.671402l-1.05014 -10.7424c-0.0344309 -0.344309 -0.103293 -0.37874 -0.292662 -0.37874c-0.172154 0 -0.275447 0.0344309 -0.430386 0.292662l-6.0254 10.0882zm2.06585 -2.65118l3.4603 -5.78439l0.585325 5.78439h-4.04563z" id="g0-65" />
<ns0:path d="m2.85776 -0.705833c0 -0.430386 -0.344309 -0.705833 -0.705833 -0.705833c-0.344309 0 -0.705833 0.275447 -0.705833 0.705833s0.344309 0.705833 0.705833 0.705833c0.344309 0 0.705833 -0.275447 0.705833 -0.705833z" id="g1-46" />
<ns0:path d="m4.6826 -6.19756c1.08457 -0.550894 2.18636 -1.37724 2.18636 -2.70282c0 -1.56661 -1.51496 -2.47902 -2.90941 -2.47902c-1.56661 0 -2.94384 1.13622 -2.94384 2.70282c0 0.430386 0.103293 1.17065 0.774695 1.82484c0.172154 0.172154 0.895203 0.688618 1.36002 1.01571c-0.774695 0.395955 -2.58232 1.3428 -2.58232 3.2365c0 1.77319 1.68711 2.87498 3.35701 2.87498c1.84205 0 3.39144 -1.32559 3.39144 -3.08156c0 -1.56661 -1.05014 -2.28965 -1.73876 -2.75447l-0.895203 -0.636971zm-2.25522 -1.51496c-0.137724 -0.0860772 -0.826341 -0.619756 -0.826341 -1.42888c0 -1.05014 1.08457 -1.84205 2.32408 -1.84205c1.36002 0 2.35852 0.964065 2.35852 2.08307c0 1.60104 -1.79041 2.51345 -1.87648 2.51345c-0.0172154 0 -0.0344309 0 -0.172154 -0.103293l-1.80762 -1.2223zm3.16764 3.52917c0.258232 0.18937 1.08457 0.757479 1.08457 1.80762c0 1.27394 -1.27394 2.23801 -2.72004 2.23801c-1.56661 0 -2.75447 -1.119 -2.75447 -2.47902s1.05014 -2.49624 2.23801 -3.02992l2.15193 1.46331z" id="g1-56" />
<ns0:path d="m11.0695 -5.52616c0.258232 0 0.516463 0 0.516463 -0.292662c0 -0.309878 -0.292662 -0.309878 -0.585325 -0.309878h-9.62343c-0.292662 0 -0.585325 0 -0.585325 0.309878c0 0.292662 0.258232 0.292662 0.516463 0.292662h9.76115zm-0.0688618 3.06435c0.292662 0 0.585325 0 0.585325 -0.309878c0 -0.292662 -0.258232 -0.292662 -0.516463 -0.292662h-9.76115c-0.258232 0 -0.516463 0 -0.516463 0.292662c0 0.309878 0.292662 0.309878 0.585325 0.309878h9.62343z" id="g1-61" />
</ns0:defs>
<ns0:g id="page1">
<ns0:use x="27.9837" ns1:href="#g0-65" y="74.7198" />
<ns0:use x="45.4022" ns1:href="#g1-61" y="74.7198" />
<ns0:use x="62.5765" ns1:href="#g1-56" y="74.7198" />
</ns0:g>
</ns0:svg>

<ns0:svg xmlns:ns0="http://www.w3.org/2000/svg" xmlns:ns1="http://www.w3.org/1999/xlink" height="11.7639pt" version="1.1" viewBox="23.686 62.9559 46.7859 11.7639" width="46.7859pt" watch_lated_md:baseline="-7.105427357601002e-15" xmlns:watch_lated_md="https://github.com/Quansight/pearu-sandbox/latex_in_markdown/">
<ns0:defs>
<ns0:path d="M2.92662 -1.91091C2.32408 -0.895203 1.73876 -0.550894 0.912418 -0.499248C0.723049 -0.482032 0.585325 -0.482032 0.585325 -0.172154C0.585325 -0.0688618 0.671402 0 0.79191 0C1.10179 0 1.87648 -0.0344309 2.18636 -0.0344309C2.68561 -0.0344309 3.2365 0 3.71854 0C3.82183 0 4.02841 0 4.02841 -0.327093C4.02841 -0.482032 3.89069 -0.499248 3.7874 -0.499248C3.39144 -0.533679 3.06435 -0.671402 3.06435 -1.08457C3.06435 -1.32559 3.16764 -1.51496 3.39144 -1.8937L4.69982 -4.06284H9.08975C9.10697 -3.90791 9.10697 -3.77018 9.12418 -3.61524C9.17583 -3.16764 9.38242 -1.37724 9.38242 -1.05014C9.38242 -0.533679 8.50443 -0.499248 8.22898 -0.499248C8.03961 -0.499248 7.85024 -0.499248 7.85024 -0.18937C7.85024 0 8.00518 0 8.10847 0C8.40114 0 8.74544 -0.0344309 9.03811 -0.0344309H10.0194C11.0695 -0.0344309 11.827 0 11.8442 0C11.9647 0 12.1541 0 12.1541 -0.327093C12.1541 -0.499248 11.9992 -0.499248 11.7409 -0.499248C10.7941 -0.499248 10.7769 -0.654187 10.7252 -1.17065L9.67508 -11.9131C9.64065 -12.2574 9.57179 -12.2918 9.38242 -12.2918C9.21026 -12.2918 9.10697 -12.2574 8.95203 -11.9992L2.92662 -1.91091ZM4.99248 -4.56209L8.45278 -10.3465L9.03811 -4.56209H4.99248Z" id="g0-65" />
<ns0:path d="M2.85776 -0.705833C2.85776 -1.13622 2.51345 -1.41167 2.15193 -1.41167C1.80762 -1.41167 1.4461 -1.13622 1.4461 -0.705833S1.79041 0 2.15193 0C2.49624 0 2.85776 -0.275447 2.85776 -0.705833Z" id="g1-46" />
<ns0:path d="M4.6826 -6.19756C5.76717 -6.74845 6.86896 -7.57479 6.86896 -8.90038C6.86896 -10.467 5.354 -11.3794 3.95955 -11.3794C2.39295 -11.3794 1.01571 -10.2432 1.01571 -8.67658C1.01571 -8.2462 1.119 -7.50593 1.79041 -6.85175C1.96256 -6.67959 2.68561 -6.16313 3.15043 -5.83603C2.37573 -5.44008 0.56811 -4.49323 0.56811 -2.59953C0.56811 -0.826341 2.25522 0.275447 3.92512 0.275447C5.76717 0.275447 7.31656 -1.05014 7.31656 -2.80612C7.31656 -4.37272 6.26642 -5.09577 5.5778 -5.56059L4.6826 -6.19756ZM2.42738 -7.71252C2.28965 -7.79859 1.60104 -8.33227 1.60104 -9.1414C1.60104 -10.1915 2.68561 -10.9835 3.92512 -10.9835C5.28514 -10.9835 6.28364 -10.0194 6.28364 -8.90038C6.28364 -7.29935 4.49323 -6.38693 4.40715 -6.38693C4.38994 -6.38693 4.37272 -6.38693 4.235 -6.49022L2.42738 -7.71252ZM5.59502 -4.18335C5.85325 -3.99398 6.67959 -3.42587 6.67959 -2.37573C6.67959 -1.10179 5.40565 -0.137724 3.95955 -0.137724C2.39295 -0.137724 1.20508 -1.25673 1.20508 -2.61675S2.25522 -5.11299 3.44309 -5.64666L5.59502 -4.18335Z" id="g1-56" />
<ns0:path d="M11.0695 -5.52616C11.3278 -5.52616 11.586 -5.52616 11.586 -5.81882C11.586 -6.1287 11.2933 -6.1287 11.0007 -6.1287H1.37724C1.08457 -6.1287 0.79191 -6.1287 0.79191 -5.81882C0.79191 -5.52616 1.05014 -5.52616 1.30837 -5.52616H11.0695ZM11.0007 -2.46181C11.2933 -2.46181 11.586 -2.46181 11.586 -2.77169C11.586 -3.06435 11.3278 -3.06435 11.0695 -3.06435H1.30837C1.05014 -3.06435 0.79191 -3.06435 0.79191 -2.77169C0.79191 -2.46181 1.08457 -2.46181 1.37724 -2.46181H11.0007Z" id="g1-61" />
</ns0:defs>
<ns0:g id="page1">
<ns0:use x="27.9837" ns1:href="#g0-65" y="74.7198" />
<ns0:use x="45.4022" ns1:href="#g1-61" y="74.7198" />
<ns0:use x="62.5765" ns1:href="#g1-56" y="74.7198" />
</ns0:g>
</ns0:svg>
